X: 21572
M: C
L: 1/8
K: G
(B>c)dd (dg)(fe) | dB AG E2DC |\
fdcA cBcd | (ec) AG (FA) (dc) |
(Bde)f Hg2 GB | (d>e) dF "^Fine."G2z H|]\
g2fe ^d2dd | (eB) AG F2FF |
(G>A) GE e2 (d/c/)(B/A/) | (G>A) BB, HE2 zF |\
(GB) dd d2zB | cegg g2zg |\
fdBe dB Gc | cBAG HD2 "^D.C. al fine."(d>c) |]


